updated-assets/icons/friendly-support.svg

<svg width="37" height="37" viewBox="0 0 37 37" fill="none" xmlns="http://www.w3.org/2000/svg">
<g clip-path="url(#clip0_1548_2289)">
<path d="M8.85797 5.29932H3.30047C3.01359 5.29932 2.77734 5.53557 2.77734 5.82244V28.7387C2.77734 29.0256 3.01359 29.2562 3.30047 29.2562H8.85797C9.14484 29.2562 9.38109 29.0256 9.38109 28.7387V5.82244C9.38109 5.53557 9.14484 5.29932 8.85797 5.29932ZM8.75672 28.6374H3.39609V5.91807H8.75672V28.6374Z" fill="#4E5293"/>
<path d="M3.39648 5.91797H8.75711V28.6373H3.39648V5.91797Z" fill="#EC9BAE"/>
<path d="M17.0367 11.6216H11.4792C11.1923 11.6216 10.9561 11.8578 10.9561 12.1447V28.7385C10.9561 29.0253 11.1923 29.256 11.4792 29.256H17.0367C17.3236 29.256 17.5598 29.0253 17.5598 28.7385V12.1391C17.5598 11.8522 17.3236 11.6216 17.0367 11.6216ZM16.9411 28.6372H11.5748V12.246H16.9411V28.6372Z" fill="#4E5293"/>
<path d="M11.5752 12.2461H16.9414V28.643H11.5752V12.2461Z" fill="#F1CA6C"/>
<path d="M25.221 15.5762H19.6579C19.371 15.5762 19.1348 15.8124 19.1348 16.1049V28.7387C19.1348 29.0255 19.371 29.2562 19.6579 29.2562H25.221C25.5079 29.2562 25.7385 29.0255 25.7385 28.7387V16.0993C25.7393 16.0309 25.7264 15.963 25.7007 15.8995C25.6751 15.8361 25.6371 15.7784 25.5889 15.7297C25.5408 15.6811 25.4835 15.6425 25.4204 15.6161C25.3572 15.5897 25.2895 15.5762 25.221 15.5762ZM25.1198 28.6374H19.7591V16.1949H25.1198V28.6374Z" fill="#4E5293"/>
<path d="M19.7598 16.1948H25.1204V28.6373H19.7598V16.1948Z" fill="#99D3BA"/>
<path d="M33.4 18.1636H27.8368C27.55 18.1636 27.3193 18.3998 27.3193 18.6867V28.7386C27.3193 29.0254 27.55 29.2561 27.8368 29.2561H33.4C33.6868 29.2561 33.9231 29.0254 33.9231 28.7386V18.6923C33.9231 18.3998 33.6868 18.1636 33.4 18.1636ZM33.2987 28.6373H27.9381V18.7936H33.2987V28.6373Z" fill="#4E5293"/>
<path d="M27.9385 18.7935H33.2991V28.6428H27.9385V18.7935Z" fill="#4FBDE5"/>
<path d="M35.4252 30.1841H1.27578C0.763906 30.1841 0.347656 30.606 0.347656 31.1122C0.347656 31.6241 0.763906 32.0347 1.27578 32.0347H35.4252C35.9314 32.0347 36.3477 31.6241 36.3477 31.1122C36.3477 30.606 35.9314 30.1841 35.4252 30.1841ZM35.4252 31.416H1.27578C1.10703 31.416 0.972031 31.281 0.972031 31.1122C0.972031 30.9435 1.10703 30.8085 1.27578 30.8085H35.4252C35.5883 30.8085 35.7289 30.9435 35.7289 31.1122C35.7289 31.281 35.5883 31.416 35.4252 31.416Z" fill="#4E5293"/>
<path d="M35.7286 31.1123C35.7286 31.2811 35.5879 31.4161 35.4248 31.4161H1.27543C1.10668 31.4161 0.97168 31.2811 0.97168 31.1123C0.97168 30.9436 1.10668 30.8086 1.27543 30.8086H35.4248C35.5879 30.8086 35.7286 30.9492 35.7286 31.1123Z" fill="#BFC6DB"/>
</g>
<defs>
<clipPath id="clip0_1548_2289">
<rect width="36" height="36" fill="white" transform="translate(0.347656 0.669922)"/>
</clipPath>
</defs>
</svg>

<svg width="37" height="37" fill="none" xmlns="http://www.w3.org/2000/svg"><g clip-path="url(#a)"><path d="M8.858 5.3H3.3a.526.526 0 0 0-.523.522V28.74a.52.52 0 0 0 .523.517h5.558a.52.52 0 0 0 .523-.517V5.822a.526.526 0 0 0-.523-.523Zm-.101 23.337h-5.36V5.918h5.36v22.72Z" fill="#4E5293"/><path d="M3.396 5.918h5.361v22.72h-5.36V5.917Z" fill="#EC9BAE"/><path d="M17.037 11.622h-5.558a.526.526 0 0 0-.523.523v16.593c0 .287.236.518.523.518h5.558a.52.52 0 0 0 .523-.518V12.14a.52.52 0 0 0-.523-.517Zm-.096 17.015h-5.366V12.246h5.366v16.391Z" fill="#4E5293"/><path d="M11.575 12.246h5.366v16.397h-5.366V12.246Z" fill="#F1CA6C"/><path d="M25.221 15.576h-5.563a.527.527 0 0 0-.523.529v12.634a.52.52 0 0 0 .523.517h5.563c.287 0 .517-.23.517-.517v-12.64a.516.516 0 0 0-.517-.523Zm-.101 13.061h-5.36V16.195h5.36v12.442Z" fill="#4E5293"/><path d="M19.76 16.195h5.36v12.442h-5.36V16.195Z" fill="#99D3BA"/><path d="M33.4 18.164h-5.563a.521.521 0 0 0-.518.523v10.052c0 .286.231.517.518.517H33.4a.52.52 0 0 0 .523-.517V18.692a.527.527 0 0 0-.523-.528Zm-.101 10.473h-5.36v-9.843h5.36v9.843Z" fill="#4E5293"/><path d="M27.939 18.794h5.36v9.849h-5.36v-9.85Z" fill="#4FBDE5"/><path d="M35.425 30.184H1.275a.924.924 0 1 0 0 1.85h34.15c.506 0 .923-.41.923-.922a.932.932 0 0 0-.923-.928Zm0 1.232H1.275a.302.302 0 0 1-.303-.304c0-.168.135-.303.304-.303h34.15c.162 0 .303.134.303.303 0 .169-.14.304-.304.304Z" fill="#4E5293"/><path d="M35.729 31.112c0 .17-.141.304-.304.304H1.275a.302.302 0 0 1-.303-.304c0-.168.135-.303.303-.303h34.15a.31.31 0 0 1 .304.303Z" fill="#BFC6DB"/></g><defs><clipPath id="a"><path fill="#fff" transform="translate(.348 .67)" d="M0 0h36v36H0z"/></clipPath></defs></svg>
